!!!COA:	Josquin des Prez
!!!CDT:	~1450-1521/08/27
!!!OTL:	Laudate pueri Dominum
!!!AGN:	Motet
!!!SCT:	NJE 17.11
!!!SCA:	New Josquin Edition 17.11
!!!voices:	4
**kern	**kern	**kern	**kern
*staff4	*staff3	*staff2	*staff1
*Ivox	*Ivox	*Ivox	*Ivox
*I"Bassus	*I"Tenor	*I"Altus	*I"Superius
*I'B	*I'T	*I'A	*I'S
*clefF4	*clefGv2	*clefGv2	*clefG2
*>[A,B]	*>[A,B]	*>[A,B]	*>[A,B]
*>A	*>A	*>A	*>A
*k[b-]	*k[b-]	*k[b-]	*k[b-]
*M2/1	*M2/1	*M2/1	*M2/1
*met(C|)	*met(C|)	*met(C|)	*met(C|)
=1-	=1-	=1-	=1-
0r	0r	1r	0f
.	.	[1F	.
=2	=2	=2	=2
1r	0F	1F]	1a
[1F	.	1A	[1cc
=3	=3	=3	=3
1F]	1A	1c	1cc]
1A	[1c	2.c\	2cc\
.	.	.	[2cc\
.	.	4d\	.
=4	=4	=4	=4
0c	1c]	2e\	2cc\]
.	.	2.f\	4b-\
.	.	.	4a/
.	1r	.	2.g/
.	.	8e\L	.
.	.	8d\J	.
.	.	2e\	.
.	.	.	4f/
=5	=5	=5	=5
0F	0c	1f	1a
.	.	2r	2r
.	.	[2f\	[2a/
=6	=6	=6	=6
1F	1c	2f\]	2a/]
.	.	1f	2a/
1F	1c	.	1a
.	.	2f\	.
=7	=7	=7	=7
1.B-	1.d	1.g	1.b-
2F\	2c\	2f\	2a/
=8	=8	=8	=8
0F	0c	1f	1a
.	.	2r	2r
.	.	[2f\	[2a/
=9	=9	=9	=9
1F	1c	2f\]	2a/]
.	.	1f	1a
2F\	2c\	.	.
2F\	2c\	2f\	2a/
=10	=10	=10	=10
1B-	1d	1f	1b-
1G	1B-	1g	1b-
=11	=11	=11	=11
1.A	1.c	1.e	1.a
2D\	2A/	2d\	2f/
=12	=12	=12	=12
0D;	0A;	0d;	0f;
=13	=13	=13	=13
1BB-	1d	1f	1b-
1F	1c	1f	1a
=14	=14	=14	=14
1G	1B-	1e	1g
2F\	2c\	2f\	2a/
2F\	2c\	2f\	2a/
=15	=15	=15	=15
2F\	2c\	2f\	2a/
1B-	1d	1g	1b-
2F\	2c\	2f\	2a/
=16	=16	=16	=16
1G	1B-	1d	1g
[1C	[1c	[1e	[1g
=17	=17	=17	=17
1C]	1c]	1e]	1g]
1F	1c	1r	1r
=18	=18	=18	=18
2F\	2c\	1f	1a
2F\	2c\	.	.
2F\	2c\	2f\	2a/
2F\	2c\	2f\	2a/
=19	=19	=19	=19
4F\	1c	2f\	2a/
4E\	.	.	.
4D\	.	2f\	2a/
4C/	.	.	.
1BB-	1d	1f	4b-\
.	.	.	4a/
.	.	.	4g/
.	.	.	4f/
=20	=20	=20	=20
1C	2.c\	1e	2a/
.	.	.	2.g/
.	4B-\	.	.
2D\	4A/	1d	.
.	4G/	.	4f/
2BB-/	4A/	.	2f/
.	4B-\	.	.
=21	=21	=21	=21
2C/	2G/	2c\	2e/
2D\	2F/	2B-\	1f
1C	1G	2.c\	.
.	.	.	2e/
.	.	4B-\	.
=22	=22	=22	=22
2r	0F	4A/	1f
.	.	4G/	.
2c\	.	1F	.
2A\	.	.	1r
2F\	.	[2f\	.
=23	=23	=23	=23
1G	0r	2f\]	1b-
.	.	2e\	.
1F	.	2f\	2a/
.	.	2f\	2f/
=24	=24	=24	=24
0r	1B-	2d\	4g/
.	.	.	4f/
.	.	2B-\	4e/
.	.	.	4d/
.	2A/	1c	2c/
.	2F/	.	[2f/
=25	=25	=25	=25
0r	1G	1B-	2f/]
.	.	.	2e/
.	1F	1r	1f
=26	=26	=26	=26
2r	2r	2r	2r
2F\	2c\	2f\	2a/
2C/	2c\	2e\	2g/
2F\	2c\	2f\	2a/
=27	=27	=27	=27
0E-	0e-	0g	0b-
=28	=28	=28	=28
0F	0c	0f	[0a
=29	=29	=29	=29
1d	1f	0r	0a]
2d\	2f\	.	.
2d\	2f\	.	.
=30	=30	=30	=30
1c	2e\	0r	0r
.	2a\	.	.
2B-\	2g\	.	.
2A\	[2f\	.	.
=31	=31	=31	=31
2G\	2f\]	1r	1r
2G\	2e\	.	.
[1F	[1f	1a	1ff
=32	=32	=32	=32
1F]	1f]	2a\	2ff\
.	.	2a\	2ff\
1r	1r	1g	2ee\
.	.	.	[2dd\
=33	=33	=33	=33
0r	1r	2f\	4dd\]
.	.	.	4cc\
.	.	2e\	1cc
.	1d	1f	.
.	.	.	4b-\
.	.	.	4a/
=34	=34	=34	=34
0r	2d\	1f	2.b-\
.	2d\	.	.
.	.	.	4cc\
.	1c	1e	2a/
.	.	.	[2g/
=35	=35	=35	=35
0r	2B-\	0r	4g/]
.	.	.	4f/
.	2A/	.	1f
.	1G	.	.
.	.	.	4e/
.	.	.	4d/
=36	=36	=36	=36
1r	1G	1r	2.e/
.	.	.	4f/
1A	1F	1f	2d/
.	.	.	2c/
=37	=37	=37	=37
2A\	1F	2f\	1c
2A\	.	2f\	.
1G	1B-	2e\	1r
.	.	[2d\	.
=38	=38	=38	=38
2F\	2A/	2d\]	2r
2E\	2G/	2c\	1g
2D\	2A/	2c\	.
2D\	2F/	2B-\	2f/
=39	=39	=39	=39
1C	2G/	1c	2f/
.	2G/	.	2e/
1r	[1F	2r	[1f
.	.	2c\	.
=40	=40	=40	=40
2r	1F]	2c\	0f_
2F\	.	2c\	.
2F\	1r	1A	.
2F\	.	.	.
=41	=41	=41	=41
1D	0r	1B-	1f]
1E	.	1c	2r
.	.	.	2cc\
=42	=42	=42	=42
1F	2r	1c	2cc\
.	2f\	.	2cc\
1F	2f\	1r	1a
.	2f\	.	.
=43	=43	=43	=43
0r	1d	1r	1b-
.	1e	2.c\	1cc
.	.	4c\	.
=44	=44	=44	=44
2.F\	1f	2c\	1cc
.	.	2c\	.
4F\	.	.	.
2F\	1f	1d	1r
2F\	.	.	.
=45	=45	=45	=45
1G	0r	1e	1r
1A	.	2.c\	2.cc\
.	.	4c\	4cc\
=46	=46	=46	=46
2.F\	2.f\	0A	2cc\
.	.	.	2cc\
4F\	4f\	.	.
1D	2f\	.	1dd
.	2f\	.	.
=47	=47	=47	=47
0r	1g	0r	1ee
.	1a	.	2.cc\
.	.	.	4cc\
=48	=48	=48	=48
1r	2.f\	0r	1a
.	4f\	.	.
1B-	[1d	.	1r
=49	=49	=49	=49
2B-\	1d]	1f	0r
2B-\	.	.	.
1A	1r	2f\	.
.	.	2f\	.
=50	=50	=50	=50
1G	1r	1e	1b-
2.B-\	1f	1d	2b-\
.	.	.	2b-\
4B-\	.	.	.
=51	=51	=51	=51
1F	2f\	2.f\	1a
.	2f\	.	.
.	.	4f\	.
1r	1e	1c	1g
=52	=52	=52	=52
1r	1d	1r	2.b-\
.	.	.	4b-\
1F	2.f\	2r	2f/
.	.	[2c\	[2a/
.	4f\	.	.
=53	=53	=53	=53
2F\	1c	2c\]	2a/]
2F\	.	2c\	2a/
1E	1r	2c\	2.g/
.	.	[2B-\	.
.	.	.	4f/
=54	=54	=54	=54
1D	2r	2B-\]	2f/
.	1f	1A	1a
2.F\	.	.	.
.	2f\	[2c\	[2g/
4F\	.	.	.
=55	=55	=55	=55
2C/	2e\	4c\]	2g/]
.	.	4c\	.
1G	2d\	2G/	1b-
.	2g\	1d	.
2G\	2g\	.	2b-\
=56	=56	=56	=56
2D\	1f	2d\	2.a/
2.F\	.	2.A/	.
.	.	.	4b-\
.	2F/	.	4cc\
4F\	.	4B-\	4dd\
2C/	2G/	[2c\	4ee\
.	.	.	8dd\L
.	.	.	8ee\J
=57	=57	=57	=57
2F\	2A/	4c\]	2.ff\
.	.	4d\	.
2G\	2B-\	2e\	.
.	.	.	8ee\L
.	.	.	8dd\J
2A\	2c\	2f\	2cc\
[2B-\	[2d\	[2g\	[2b-\
=58	=58	=58	=58
4B-\]	4d\]	4g\]	4b-\]
4A\	4c\	4f\	4cc\
4G\	1c	1f	1dd
4F\	.	.	.
1G	.	.	.
.	2B-\	2e\	4cc\
.	.	.	4b-\
=59	=59	=59	=59
2F\	1c	2f\	2a/
2C/	.	2e\	2g/
2.F\	2r	1f	2f/
.	[2c\	.	[2ff\
4G\	.	.	.
=60	=60	=60	=60
4A\	4c\]	2.c\	2ff\]
4B-\	4d\	.	.
1c	4e\	.	1ee
.	4f\	4d\	.
.	1g	4e\	.
.	.	4f\	.
2G\	.	[2g\	[2dd\
=61	=61	=61	=61
1A	1c	2g\]	2dd\]
.	.	2f\	1cc
1G	1d	2g\	.
.	.	[2G/	2bni\
=62	=62	=62	=62
2C/	0c	2G/]	1.cc
1F	.	2A/	.
.	.	1G	.
2E\	.	.	4b-\
.	.	.	4a/
=63	=63	=63	=63
1F	1c	1r	1a
1BB-	2.B-\	1d	1r
.	8A/L	.	.
.	8G/J	.	.
=64	=64	=64	=64
0r	[0F	1.f	1a
.	.	.	1cc
.	.	2f\	.
=65	=65	=65	=65
0r	0F]	1f	2cc\
.	.	.	2cc\
.	.	1f	2cc\
.	.	.	2dd\
=66	=66	=66	=66
0r	0r	1f	2cc\
.	.	.	1dd
.	.	1g	.
.	.	.	4cc\
.	.	.	4b-\
=67	=67	=67	=67
0r	0r	4f\	4a/
.	.	4e\	4g/
.	.	2.d\	2.b-\
.	.	4c\	4a/
.	.	4B-\	[2a/
.	.	4A/	.
=68	=68	=68	=68
1r	1d	1B-	2a/]
.	.	.	2g/
1D	[1f	[1A	[1a
=69	=69	=69	=69
2.F\	2f\]	1A]	1a]
.	2f\	.	.
4G\	.	.	.
4A\	1f	1r	1r
4F\	.	.	.
2B-\	.	.	.
=70	=70	=70	=70
2A\	1f	0r	0r
2.B-\	.	.	.
.	1f	.	.
4c\	.	.	.
2d\	.	.	.
=71	=71	=71	=71
2G\	1g	0r	0r
2B-\	.	.	.
2A\	2f\	.	.
[2G\	[2e\	.	.
=72	=72	=72	=72
4G\]	4e\]	0r	0r
4F\	4d\	.	.
4E\	1d	.	.
4D\	.	.	.
1E	.	.	.
.	2c#i\	.	.
=73	=73	=73	=73
0D	0d	0r	0r
=74	=74	=74	=74
1r	1r	1r	1r
1F	1A	1f	[1cc
=75	=75	=75	=75
1F	1A	1f	2cc\]
.	.	.	2cc\
1F	1A	2.d\	1dd
.	.	4c\	.
=76	=76	=76	=76
1E	1G	1.c	1ee
1D	1A	.	1ff
.	.	4B-\	.
.	.	4A/	.
=77	=77	=77	=77
1D	1F	1B-	1ff
[1C	1G	2.c\	2ee\
.	.	.	[2cc\
.	.	4d\	.
=78	=78	=78	=78
0C_	1c	2e\	2cc\]
.	.	1c	4b-\
.	.	.	4a/
.	1r	.	4b-\
.	.	.	4a/
.	.	4B-\	4g/
.	.	4A/	4f/
=79	=79	=79	=79
1C]	2c\	1G	2.e/
.	2c\	.	.
.	.	.	4d/
2c\	2A/	1F	1f
2c\	2A/	.	.
=80	=80	=80	=80
2A\	0F	1r	2cc\
2A\	.	.	2cc\
1F	.	2c\	2a/
.	.	2c\	2a/
=81	=81	=81	=81
1.F	1c	2A/	2.f/
.	.	2A/	.
.	.	.	4g/
.	1c	[1F	4a/
.	.	.	4b-\
2E\	.	.	[2cc\
=82	=82	=82	=82
1D	2d\	1F]	2cc\]
.	2d\	.	2b-\
[1C	2.e\	2G/	2cc\
.	.	2G/	2cc\
.	4d\	.	.
=83	=83	=83	=83
1C]	2e\	2G/	1cc
.	1f	1A	.
[1C	.	.	2r
.	4e\	4G/	2cc\
.	4d\	4F/	.
=84	=84	=84	=84
1C]	1e	1G	0cc
1F	1c	2.A/	.
.	.	4B-\	.
=85	=85	=85	=85
1F	2f\	2c\	1a
.	1f	2.d\	.
2G\	.	.	2r
.	.	4c\	.
2G\	4e\	4B-\	[2dd\
.	4d\	4A/	.
=86	=86	=86	=86
1G	1e	2B-\	4dd\]
.	.	.	4cc\
.	.	2B-\	1b-
[1F	1f	[1c	.
.	.	.	4a/
.	.	.	4g/
=87	=87	=87	=87
0F_	1.f	2c\]	1.a
.	.	2A/	.
.	.	[1A	.
.	4e\	.	4g/
.	4d\	.	4f/
=88	=88	=88	=88
1F]	1c	1A]	0f
1r	2r	2r	.
.	2F/	[2c\	.
=89	=89	=89	=89
1F	1A	2c\]	0r
.	.	1d	.
1G	1B-	.	.
.	.	[2e\	.
=90	=90	=90	=90
1A	1c	2e\]	0r
.	.	2e\	.
1A	1c	2f\	.
.	.	2e\	.
=91	=91	=91	=91
2A\	2c\	2f\	1r
2B-\	2.d\	2.g\	.
2F\	.	.	1f
.	4c\	4e\	.
2A\	[2c\	[2f\	.
=92	=92	=92	=92
1G	2c\]	2f\]	1g
.	2B-\	2e\	.
[1F	2c\	1f	1a
.	[2F/	.	.
=93	=93	=93	=93
1F]	4F/]	2.c\	2.a/
.	4G/	.	.
.	4A/	.	.
.	4B-\	4d\	4g/
1r	2c\	2e\	2a/
.	[2d\	[2f\	[2b-\
=94	=94	=94	=94
0r	4d\]	4f\]	4b-\]
.	4c\	4e\	4a/
.	2A/	2c\	1a
.	2B-\	2d\	.
.	2c\	2e\	2g/
=95	=95	=95	=95
0r	2F/	2c\	2a/
.	1d	1f	1a
.	2d\	2f\	2b-\
=96	=96	=96	=96
1r	2c\	2e\	2a/
.	2B-\	2d\	2g/
2r	2A/	2e\	2a/
[2F\	[2c\	[2f\	[2a/
=97	=97	=97	=97
2F\]	4c\]	2f\]	4a/]
.	4A/	.	4f/
1BB-	2.d\	2.f\	2.b-\
.	4c\	4e\	4a/
2BB-/	4B-\	2d\	4g/
.	4A/	.	4f/
=98	=98	=98	=98
2C/	2G/	2c\	2e/
2D\	2F/	2B-\	1f
1C	1G	1c	.
.	.	.	2e/
=99	=99	=99	=99
2r	2F/	2c\	2f/
1F	1c	1f	1a
2BB-/	2d\	2f\	2b-\
=100	=100	=100	=100
2F\	2c\	2f\	2a/
2G\	2B-\	2e\	2g/
2D\	2.A/	2f\	2a/
[2F\	.	[2f\	[2a/
.	4B-\	.	.
=101	=101	=101	=101
2F\]	2c\	2f\]	4a/]
.	.	.	4f/
1BB-	2.d\	2.f\	2.b-\
.	4c\	4e\	4a/
2BB-/	4B-\	2d\	4g/
.	4A/	.	4f/
=102	=102	=102	=102
2C/	2G/	2c\	2e/
2D\	2F/	2B-\	1f
1C	2G/	1c	.
.	2G/	.	2e/
=103	=103	=103	=103
0Fl	0Fl	0cl	0fl
!!LO:LB:i:g=z
=104||	=104||	=104||	=104||
*>B	*>B	*>B	*>B
*k[b-]	*k[b-]	*k[b-]	*k[b-]
*M2/1	*M2/1	*M2/1	*M2/1
*met(C|)	*met(C|)	*met(C|)	*met(C|)
!!section: Secunda pars: Ut collocet eum
!!!OMD: Secunda pars: Ut collocet eum
[0F	1c	1r	0r
.	[1f	1c	.
=105	=105	=105	=105
0F]	2f\]	1.f	1r
.	2e\	.	.
.	2d\	.	[1f
.	2c\	2e\	.
=106	=106	=106	=106
1.B-	2.B-\	1.d	0f]
.	4c\	.	.
.	4d\	.	.
.	4e\	.	.
2A\	[2f\	2c\	.
=107	=107	=107	=107
1G	4f\]	1B-	1.b-
.	4e\	.	.
.	4e\	.	.
.	8d\L	.	.
.	8e\J	.	.
1F	2f\	2c\	.
.	[2d\	2F/	2a/
=108	=108	=108	=108
1E	4d\]	2.B-\	1g
.	4c\	.	.
.	2.c\	.	.
.	.	4c\	.
1D	.	4d\	2f/
.	4B-\	4e\	.
.	4B-\	[2f\	2f/
.	4A/	.	.
=109	=109	=109	=109
1C	2.c\	2f\]	1g
.	.	4e\	.
.	8B-/L	4d\	.
.	8A/J	.	.
1C	1G	1e	1g
=110	=110	=110	=110
1F	0F	0f	[0a
2r	.	.	.
[2A\	.	.	.
=111	=111	=111	=111
2A\]	2r	2r	0a]
2A\	1c	1e	.
2A\	.	.	.
2A\	2c\	2e\	.
=112	=112	=112	=112
2G\	0B-	2e\	0r
2G\	.	2e\	.
2G\	.	2d\	.
2G\	.	2d\	.
=113	=113	=113	=113
1B-	1G	2d\	1r
.	.	2d\	.
[1A	1F	1f	2r
.	.	.	[2a/
=114	=114	=114	=114
0A]	2r	1e	2a/]
.	2c\	.	1a
.	2c\	2r	.
.	2c\	[2e\	[2a/
=115	=115	=115	=115
1r	2c\	2e\]	2a/]
.	2c\	2e\	2a/
2r	2B-\	2e\	2g/
[2G\	2B-\	2e\	2g/
=116	=116	=116	=116
2G\]	1.B-	2d\	2g/
2G\	.	2d\	2g/
2G\	.	2d\	1b-
2G\	[2d\	2d\	.
=117	=117	=117	=117
2F\	2d\]	1f	0a
2F\	1c	.	.
2A\	.	2e\	.
2A\	4B-\	4c\	.
.	4A/	4d\	.
=118	=118	=118	=118
[0G	2.B-\	4e\	0r
.	.	4f\	.
.	.	1g	.
.	4c\	.	.
.	4d\	.	.
.	4e-i\	.	.
.	[2d\	2f\	.
=119	=119	=119	=119
0G]	4d\]	2e\	2r
.	4c\	.	.
.	1c	4d\	[2b-\
.	.	4c\	.
.	.	1d	4b-\]
.	.	.	4a/
.	2B-\	.	4g/
.	.	.	4f/
=120	=120	=120	=120
[0C	4c\	[0c	2.e/
.	4G/	.	.
.	1c	.	.
.	.	.	4f/
.	.	.	4g/
.	.	.	4a/
.	2B-\	.	[2g/
=121	=121	=121	=121
0C]	2A/	0c]	4g/]
.	.	.	4f/
.	4G/	.	1f
.	4F/	.	.
.	1G	.	.
.	.	.	2e/
=122	=122	=122	=122
1r	1F	1c	1f
1c	1r	2r	1r
.	.	[2g\	.
=123	=123	=123	=123
2B-\	0r	2g\]	0r
2A\	.	2f\	.
1c	.	2e\	.
.	.	[2g\	.
=124	=124	=124	=124
2G\	0r	2g\]	0r
1B-	.	2d\	.
.	.	2f\	.
2A\	.	2f\	.
=125	=125	=125	=125
2G\	0r	2e\	0r
2F\	.	2d\	.
2E\	.	2c\	.
2D\	.	2B-\	.
=126	=126	=126	=126
[0C	1r	[0c	1cc
.	1c	.	2a/
.	.	.	2g/
=127	=127	=127	=127
0C]	2A/	0c]	1cc
.	2G/	.	.
.	1c	.	2.g/
.	.	.	4f/
=128	=128	=128	=128
[0C	2G/	[0c	4e/
.	.	.	8d/L
.	.	.	8c/J
.	1e	.	1cc
.	2d\	.	2b-\
=129	=129	=129	=129
0C]	2c\	0c]	2a/
.	2B-\	.	2g/
.	2A/	.	2f/
.	2G/	.	2e/
=130	=130	=130	=130
2.F\	1F	2A/	1f
.	.	2.F/	.
4G\	.	.	.
4A\	1F	.	1f
4B-\	.	4G/	.
2c\	.	4A/	.
.	.	4B-\	.
=131	=131	=131	=131
1F	0r	2c\	0r
.	.	2d\	.
[1G	.	2e\	.
.	.	2d\	.
=132	=132	=132	=132
0G]	0r	4e\	0r
.	.	4d\	.
.	.	4e\	.
.	.	4d\	.
.	.	4e\	.
.	.	4d\	.
.	.	4c\	.
.	.	4B-\	.
=133	=133	=133	=133
1F	0r	2A/	1r
.	.	2D/	.
2E\	.	2G/	2cc\
[2D\	.	[2F/	[2dd\
=134	=134	=134	=134
4D\]	1r	4F/]	2dd\]
4C/	.	4E/	.
1c	.	4D/	2ee\
.	.	4C/	.
.	1d	1D	1ff
2Bni\	.	.	.
=135	=135	=135	=135
1c	1g	1C	2.ee\
.	.	.	8dd\L
.	.	.	8cc\J
1r	1g	1r	2ee\
.	.	.	[2dd\
=136	=136	=136	=136
0r	2f\	2r	4dd\]
.	.	.	4cc\
.	2e\	2c\	1cc
.	1d	1f	.
.	.	.	2bni\
=137	=137	=137	=137
2r	0c	1.e	1cc
1c	.	.	.
.	.	.	1r
4B-\	.	4d\	.
4A\	.	4c\	.
=138	=138	=138	=138
2B-\	0r	2d\	0r
2c\	.	2e\	.
2.F\	.	2f\	.
.	.	[2c\	.
4G\	.	.	.
=139	=139	=139	=139
4A\	0r	4c\]	0r
4B-\	.	4d\	.
2.c\	.	4e\	.
.	.	4f\	.
.	.	4g\	.
4A\	.	4a\	.
[2d\	.	[2b-\	.
=140	=140	=140	=140
4d\]	0r	2b-\]	0r
4c\	.	.	.
2.A\	.	1a	.
4B-\	.	.	.
2c\	.	2g\	.
=141	=141	=141	=141
1F	0r	4a\	0r
.	.	4g\	.
.	.	4f\	.
.	.	4e\	.
2.G\	.	4d\	.
.	.	4c\	.
.	.	4B-\	.
4F\	.	4A/	.
=142	=142	=142	=142
4E\	0r	4G/	1r
4D\	.	4F/	.
2C/	.	2c\	.
4D\	.	4B-\	2r
4C/	.	4A/	.
[2F\	.	4G/	2a/
.	.	4F/	.
=143	=143	=143	=143
2F\]	1G	1G	1b-
2E\	.	.	.
1F	1c	1F	2.a/
.	.	.	8g/L
.	.	.	8f/J
=144	=144	=144	=144
0r	1c	0r	2a/
.	.	.	2.g/
.	2B-\	.	.
.	.	.	4f/
.	2A/	.	[2f/
=145	=145	=145	=145
1C	1G	2r	2f/]
.	.	1c	2e/
2.F\	1F	.	2f/
.	.	[2f\	2r
4E\	.	.	.
=146	=146	=146	=146
2D\	2.B-\	4f\]	2f/
.	.	4e\	.
2.G\	.	2d\	2.b-\
.	4A/	.	.
.	2G/	2.g\	.
4F\	.	.	4a/
4E\	[2c\	.	2g/
4D\	.	4f\	.
=147	=147	=147	=147
2C/	4c\]	4e\	2.cc\
.	4B-\	4d\	.
2.F\	4A/	2c\	.
.	4G/	.	4b-\
.	2F/	2.f\	4a/
4E\	.	.	4g/
2D\	[2B-\	.	2f/
.	.	4e\	.
=148	=148	=148	=148
2.G\	4B-\]	4d\	2g/
.	4A/	4c\	.
.	2G/	4B-\	2.g/
4F\	.	4A/	.
4E\	2.c\	2G/	.
4D\	.	.	4f/
2C/	.	[2c\	4e/
.	4B-\	.	4d/
=149	=149	=149	=149
2F\	4A/	2c\]	2c/
.	4G/	.	.
2D\	2F/	2B-\	1f
1C	1G	2.c\	.
.	.	.	2e/
.	.	4B-\	.
=150	=150	=150	=150
2.c\	2.F/	4A/	1f
.	.	4G/	.
.	.	2F/	.
4B-\	4G/	.	.
4A\	4A/	2r	2r
4G\	4B-\	.	.
2F\	2c\	2f\	2a/
=151	=151	=151	=151
2G\	2B-\	2e\	2g/
2F\	2c\	2f\	2a/
2r	2r	2r	2r
2F\	2c\	2f\	2a/
=152	=152	=152	=152
2G\	2B-\	2e\	2g/
2F\	2c\	2f\	2a/
2r	4A/	2r	4f/
.	4B-\	.	4g/
2F\	4c\	2f\	4a/
.	4A/	.	4f/
=153	=153	=153	=153
2BB-/	2d\	2f\	2b-\
1.F	1c	1f	1a
.	4c\	2f\	4a/
.	8B-\L	.	8g/L
.	8c\J	.	8a/J
=154	=154	=154	=154
2BB-/	2d\	2f\	2b-\
1.F	1c	1.f	1a
.	4c\	.	4a/
.	8B-\L	.	8g/L
.	8c\J	.	8a/J
=155	=155	=155	=155
2BB-/	2d\	2f\	2b-\
2F\	1c	2f\	2a/
2C/	.	2e\	2g/
2BB-/	2d\	2f\	2b-\
=156	=156	=156	=156
1C	1c	1e	2a/
.	.	.	2.g/
2D\	2A/	1d	.
.	.	.	4f/
2BB-/	2B-\	.	2f/
=157	=157	=157	=157
2C/	2G/	2c\	2e/
2D\	2F/	2B-\	1f
1C	2.G/	1c	.
.	.	.	2e/
.	4A/	.	.
=158	=158	=158	=158
2.BB-/	4B-\	2F/	2.d/
.	4c\	.	.
.	2.d\	1f	.
4C/	.	.	4e/
4D\	.	.	4f/
4E\	4c\	.	4g/
[2F\	[2c\	[2f\	[2a/
=159	=159	=159	=159
4F\]	2c\]	1f]	2a/]
4E\	.	.	.
2D\	4B-\	.	4g/
.	4A/	.	4f/
2C/	2c\	2g\	4e/
.	.	.	4d/
[2E-\	[2B-\	[2e-\	[2g/
=160	=160	=160	=160
2E-\]	4B-\]	2e-\]	4g/]
.	4A/	.	4f/
2F\	4G/	4d\	1f
.	4F/	4c\	.
1C	1G	1c	.
.	.	.	2e/
=161	=161	=161	=161
1F	2r	1A	1f
.	1F	.	.
1r	.	2r	1r
.	2G/	[2c\	.
=162	=162	=162	=162
1F	1A	2c\]	1r
.	.	2d\	.
2G\	2B-\	2e\	2r
2A\	2c\	2f\	2c/
=163	=163	=163	=163
2B-\	0r	2g\	2d/
2c\	.	1a	2e/
2d\	.	.	2f/
[2c\	.	[2e\	2g/
=164	=164	=164	=164
2c\]	0r	4e\]	0r
.	.	4f\	.
4B-\	.	4g\	.
4A\	.	4e\	.
2d\	.	2f\	.
2c\	.	2e\	.
=165	=165	=165	=165
2c\	2F/	2f\	1r
2B-\	2G/	2d\	.
2c\	2A/	2c\	2f/
2r	2B-\	2r	2g/
=166	=166	=166	=166
0r	2c\	0r	2a/
.	2d\	.	2b-\
.	2e\	.	2cc\
.	[2f\	.	[2dd\
=167	=167	=167	=167
0r	4f\]	1f	4dd\]
.	4e\	.	4cc\
.	4d\	.	1cc
.	4c\	.	.
.	1d	2f\	.
.	.	2f\	2bni\
=168	=168	=168	=168
0r	1c	1g	[0cc
.	1c	1e	.
=169	=169	=169	=169
1F	2c\	0f	1cc]
.	2c\	.	.
2F\	1d	.	1r
2F\	.	.	.
=170	=170	=170	=170
1G	1B-	1d	0r
1E	1c	1r	.
=171	=171	=171	=171
0F	2A/	2r	1cc
.	2c\	2f\	.
.	2c\	1f	2cc\
.	2c\	.	2cc\
=172	=172	=172	=172
1D	2.f\	2.a\	2.dd\
.	4e\	4g\	4cc\
1r	4d\	4f\	4b-\
.	4c\	4e\	4a/
.	[2e\	[2g\	[2cc\
=173	=173	=173	=173
0r	4e\]	4g\]	4cc\]
.	4d\	4f\	4b-\
.	4c\	4e\	4a/
.	4B-\	4d\	4g/
.	2c\	2e\	2a/
.	[2d\	[2f\	[2b-\
=174	=174	=174	=174
0r	4d\]	4f\]	4b-\]
.	4c\	4e\	4a/
.	4B-\	1e	1a
.	4A/	.	.
.	1B-	.	.
.	.	2d\	2g/
=175	=175	=175	=175
2r	2A/	2e\	2a/
2A\	2c\	2f\	4r
.	.	.	4a/
2A\	2c\	2f\	2a/
2A\	2c\	2f\	2a/
=176	=176	=176	=176
1.G	2.d\	2.g\	2.b-\
.	4c\	4f\	4a/
.	4B-\	4e\	4g/
.	4A/	4d\	4f/
[2F\	[2c\	[2f\	[2a/
=177	=177	=177	=177
1F]	4c\]	4f\]	4a/]
.	4B-\	4e\	4g/
.	4A/	4d\	4f/
.	4G/	4c\	4e/
2D\	2A/	2d\	2f/
[2A\	[2F/	[2c\	4r
.	.	.	4cc\
=178	=178	=178	=178
4A\]	4F/]	2c\]	2cc\
4G\	4E/	.	.
4F\	4F/	2.f\	2cc\
4E\	4G/	.	.
4D\	2A/	.	1dd
4C/	.	4e\	.
[2BB-/	[2B-\	4d\	.
.	.	4c\	.
=179	=179	=179	=179
4BB-/]	4B-\]	4d\	1b-
4C/	4A/	4e\	.
2D\	2F/	2.f\	.
1C	1G	.	1cc
.	.	8e\L	.
.	.	8d\J	.
.	.	2e\	.
=180	=180	=180	=180
[0F	[0F	1f	0a
.	.	1r	.
=181	=181	=181	=181
0F]	0F]	1c	1f
.	.	1f	1a
=182	=182	=182	=182
0r	0r	2.e\	2.g/
.	.	4f\	4a/
.	.	4g\	4b-\
.	.	4e\	4cc\
.	.	[2f\	[2dd\
=183	=183	=183	=183
0r	0r	4f\]	4dd\]
.	.	4e\	4cc\
.	.	2c\	1cc
.	.	1d	.
.	.	.	2bni\
=184	=184	=184	=184
1r	1r	0c	1cc
1F	2r	.	1r
.	[2f\	.	.
=185	=185	=185	=185
1A	2f\]	0r	2r
.	2.e\	.	2cc\
2.G\	.	.	2.b-\
.	4d\	.	.
.	[2d\	.	.
4A\	.	.	8a/L
.	.	.	8g/J
=186	=186	=186	=186
4B-\	2d\]	2r	2f/
4c\	.	.	.
2.d\	2G/	2g\	1g
.	1A	2e\	.
4c\	.	.	.
[2c\	.	2c\	2f/
=187	=187	=187	=187
2c\]	1G	1d	1.g
2B-\	.	.	.
2c\	2c\	2c\	.
[2B-\	[2d\	[2g\	[2b-\
=188	=188	=188	=188
4B-\]	4d\]	4g\]	2b-\]
4A\	4c\	4f\	.
2F\	1c	1f	1a
1G	.	.	.
.	2B-\	2e\	2g/
=189	=189	=189	=189
2F\	2c\	2f\	2a/
2r	2r	2r	2r
2F\	2c\	2f\	2a/
2F\	2c\	2f\	2a/
=190	=190	=190	=190
2F\	2c\	2f\	2a/
2F\	2c\	2f\	2a/
2F\	2c\	2f\	2a/
2F\	2c\	2f\	2a/
=191	=191	=191	=191
2F\	2c\	2f\	2a/
2F\	2c\	2f\	2a/
1B-	1d	1g	1b-
=192	=192	=192	=192
0F	0c	1f	1a
.	.	2r	2r
.	.	[2f\	[2a/
=193	=193	=193	=193
2r	2r	2f\]	2a/]
1F	1c	2f\	2a/
.	.	2f\	2a/
2F\	2c\	2f\	2a/
=194	=194	=194	=194
2F\	2c\	1f	1a
2F\	2c\	.	.
2F\	2c\	1f	1a
[2F\	[2c\	.	.
=195	=195	=195	=195
2F\]	2c\]	1f	1a
2F\	2c\	.	.
1B-	1d	1f	1b-
=196	=196	=196	=196
1G	1B-	1g	1b-
[1A	[1c	[1e	[1a
=197	=197	=197	=197
2A\]	2c\]	2e\]	2a/]
2D\	2A/	2d\	2f/
!LO:N:vis=0.	!LO:N:vis=0.	!LO:N:vis=0.	!LO:N:vis=0.
1D;	1A;	1d;	1f;
=198	=198	=198	=198
1F	1f	1a	1cc
1F	1f	1a	2cc\
.	.	.	2cc\
=199	=199	=199	=199
1BB-	2f\	2b-\	1dd
.	2f\	2b-\	.
1F	1f	1a	2cc\
.	.	.	2cc\
=200	=200	=200	=200
0G	0d	1g	1b-
.	.	2g\	1b-
.	.	2g\	.
=201	=201	=201	=201
2.D\	1d	[0fl	[0al
4C/	.	.	.
2D\	1d	.	.
2E\	.	.	.
=202	=202	=202	=202
0Fl	0cl	0f]	0a]
==	==	==	==
*-	*-	*-	*-
!!!RDF**kern: l=long note in original notation
!!!RDF**kern: i=editorial accidental
!!!RDF**kern: V=start of tuplet marker
!!!RDF**kern: Z=end of tuplet marker
!!!ENC:	Joel Chapman 2012/1/9
!!!END:	2012/01/09/
!!!EED:	Jesse Rodin
!!!EEV:	2012/02/02/
!!attribution-level@Jos: 4 (questionable)
!!!ONB:	Translated from MusicXML and edited on 2012/02/02/ by Craig Sapp
!!muse2ps: C^@{COA}?\n@{SCT}^i2I150v95,95,95,150Q16
